public/img/logo.svg

<?xml version="1.0" encoding="UTF-8" standalone="no"?>
<svg
   width="72px"
   height="72px"
   viewBox="0 0 72 72"
   version="1.1"
   id="svg1"
   sodipodi:docname="logo.svg"
   inkscape:version="1.4.2 (ebf0e940, 2025-05-08)"
   xmlns:inkscape="http://www.inkscape.org/namespaces/inkscape"
   xmlns:sodipodi="http://sodipodi.sourceforge.net/DTD/sodipodi-0.dtd"
   xmlns="http://www.w3.org/2000/svg"
   xmlns:svg="http://www.w3.org/2000/svg"
   xmlns:rdf="http://www.w3.org/1999/02/22-rdf-syntax-ns#"
   xmlns:cc="http://creativecommons.org/ns#"
   xmlns:dc="http://purl.org/dc/elements/1.1/">
  <sodipodi:namedview
     id="namedview1"
     pagecolor="#ffffff"
     bordercolor="#000000"
     borderopacity="0.25"
     inkscape:showpageshadow="2"
     inkscape:pageopacity="0.0"
     inkscape:pagecheckerboard="0"
     inkscape:deskcolor="#d1d1d1"
     inkscape:zoom="9.6805556"
     inkscape:cx="35.586801"
     inkscape:cy="35.483501"
     inkscape:window-width="1512"
     inkscape:window-height="916"
     inkscape:window-x="0"
     inkscape:window-y="304"
     inkscape:window-maximized="1"
     inkscape:current-layer="svg1" />
  <!-- Generator: Sketch 46 (44423) - http://www.bohemiancoding.com/sketch -->
  <title
     id="title1">Group 3</title>
  <desc
     id="desc1">Created with Sketch.</desc>
  <defs
     id="defs1" />
  <path
     d="M 12,60 V 54 H 6 v 6 z"
     style="fill:#892651;fill-opacity:1"
     id="path52" />
  <path
     d="m 18,66 v -6 h -6 v 6 z"
     style="fill:#892651;fill-opacity:1"
     id="path51" />
  <path
     d="m 60,60 h -6 v 6 h 6 z"
     style="fill:#892651;fill-opacity:1"
     id="path50" />
  <path
     d="m 54,66 h -6 -6 -6 -6 -6 -6 v 6 h 6 6 6 6 6 6 z"
     style="fill:#892651;fill-opacity:1"
     id="path49" />
  <path
     d="M 48.466797,51 V 49 H 25.066406 v 2 z"
     style="fill:#892651;fill-opacity:1"
     id="path48" />
  <path
     d="m 66,54 h -6 v 6 h 6 z"
     style="fill:#892651;fill-opacity:1"
     id="path47" />
  <path
     d="M 48.466797,51 H 25.066406 v 5 h 23.400391 z"
     style="fill:#892651;fill-opacity:1"
     id="path46" />
  <path
     d="M 53.152344,46.435547 H 20.466797 V 51 h 4.599609 v -2 h 23.400391 v 2 h 4.685547 z"
     style="fill:#892651;fill-opacity:1"
     id="path45" />
  <path
     d="M 53.152344,46.435547 V 44 H 20.466797 v 2.435547 z"
     style="fill:#892651;fill-opacity:1"
     id="path44" />
  <path
     d="m 53.552734,22.400391 v 2 H 46.03125 v 2.798828 h 4.285156 v 7.539062 H 46.03125 v 4.171875 h -7.630859 v -4.171875 h -4.800782 v -7.539062 h 4.800782 V 24.400391 H 20.867187 v -2 h -4.601562 v 24.035156 h 4.201172 V 44 h 32.685547 v 2.435547 h 5.308593 V 22.400391 Z"
     style="fill:#892651;fill-opacity:1"
     id="path43" />
  <path
     d="M 53.552734,22.400391 H 46.03125 v 2 h 7.521484 z"
     style="fill:#892651;fill-opacity:1"
     id="path42" />
  <path
     d="m 38.400391,24.400391 v -2 H 20.867187 v 2 z"
     style="fill:#892651;fill-opacity:1"
     id="path41" />
  <path
     d="m 48.867187,17.400391 v 2 h -23.40039 v -2 h -4.59961 v 5 h 17.533204 7.630859 7.521484 v -5 z"
     style="fill:#892651;fill-opacity:1"
     id="path40" />
  <path
     d="m 48.867187,17.400391 h -23.40039 v 2 h 23.40039 z"
     style="fill:#892651;fill-opacity:1"
     id="path39" />
  <path
     d="m 25.466797,12.400391 v 5 h 23.40039 v -5 z"
     style="fill:#892651;fill-opacity:1"
     id="path38" />
  <path
     d="m 66,18 v 6 6 6 6 6 6 h 6 V 18 Z"
     style="fill:#892651;fill-opacity:1"
     id="path37" />
  <path
     d="m 60,12 v 6 h 6 v -6 z"
     style="fill:#892651;fill-opacity:1"
     id="path36" />
  <path
     d="m 54,6 v 6 h 6 V 6 Z"
     style="fill:#892651;fill-opacity:1"
     id="path35" />
  <path
     d="m 18,0 v 6 h 6 6 6 6 6 6 V 0 Z"
     style="fill:#892651;fill-opacity:1"
     id="path34" />
  <path
     d="m 12,12 h 6 V 6 h -6 z"
     style="fill:#892651;fill-opacity:1"
     id="path33" />
  <path
     d="m 6,18 h 6 V 12 H 6 Z"
     style="fill:#892651;fill-opacity:1"
     id="path32" />
  <path
     d="M 6,54 V 48 42 36 30 24 18 H 0 v 6 6 6 6 6 6 z"
     style="fill:#892651;fill-opacity:1"
     id="path31" />
  <metadata
     id="metadata52">
    <rdf:RDF>
      <cc:Work
         rdf:about="">
        <dc:title>Group 3</dc:title>
      </cc:Work>
    </rdf:RDF>
  </metadata>
</svg>

<?xml version="1.0" encoding="UTF-8"?>
<svg width="72px" height="72px" viewBox="0 0 72 72" version="1.1" xmlns="http://www.w3.org/2000/svg" xmlns:xlink="http://www.w3.org/1999/xlink">
    <!-- Generator: Sketch 46 (44423) - http://www.bohemiancoding.com/sketch -->
    <title>Group 3</title>
    <desc>Created with Sketch.</desc>
    <defs></defs>
    <g id="Page-1" stroke="none" stroke-width="1" fill="none" fill-rule="evenodd">
        <g id="Desktop-Home-Copy-5" transform="translate(-684.000000, -50.000000)">
            <g id="Group-3" transform="translate(684.000000, 50.000000)">
                <g id="Page-1">
                    <polygon id="Fill-1" fill="#FF4F58" points="25.4664 19.4 48.8664 19.4 48.8664 12.4 25.4664 12.4"></polygon>
                    <polygon id="Fill-2" fill="#FF4F58" points="20.8672 24.4 53.552 24.4 53.552 17.4 20.8672 17.4"></polygon>
                    <path d="M18,0 L18,6 L24,6 L29.9992,6 L36,6 L42,6 L47.9992,6 L54,6 L54,0 L18,0 Z M54,12 L60,12 L60,5.9992 L54,5.9992 L54,12 Z M11.9992,6 L11.9992,12 L6,12 L6,18 L0,18 L0,24 L0,30 L0,36 L0,42 L0,48 L0,54 L6,54 L6,48 L6,42 L6,36 L6,30 L6,24 L6,18 L11.9992,18 L11.9992,12 L18,12 L18,6 L11.9992,6 Z M60,18 L66,18 L66,12 L60,12 L60,18 Z M65.9992,18 L65.9992,24 L65.9992,30 L65.9992,36 L65.9992,42 L65.9992,48 L65.9992,54 L72,54 L72,18 L65.9992,18 Z M60,60 L66,60 L66,54 L60,54 L60,60 Z M6,60 L12,60 L12,54 L6,54 L6,60 Z M54,66 L60,66 L60,59.9992 L54,59.9992 L54,66 Z M11.9992,66 L18,66 L18,59.9992 L11.9992,59.9992 L11.9992,66 Z M47.9992,66 L42,66 L36,66 L29.9992,66 L24,66 L18,66 L18,72 L24,72 L29.9992,72 L36,72 L42,72 L47.9992,72 L54,72 L54,66 L47.9992,66 Z" id="Fill-3" fill="#FF4F58"></path>
                    <polygon id="Fill-4" fill="#FF4F58" points="25.0664 56 48.4664 56 48.4664 49 25.0664 49"></polygon>
                    <polygon id="Fill-5" fill="#FF4F58" points="20.4672 51 53.152 51 53.152 44 20.4672 44"></polygon>
                    <polygon id="Fill-6" fill="#FF4F58" points="16.2664 46.4352 58.4608 46.4352 58.4608 22.4 16.2664 22.4"></polygon>
                    <polygon id="Fill-7" fill="#F7F7F7" points="33.6 34.7377403 50.3164062 34.7377403 50.3164062 27.2 33.6 27.2"></polygon>
                    <polygon id="Fill-8" fill="#F7F7F7" points="38.4 38.9101562 46.0309818 38.9101562 46.0309818 22.4 38.4 22.4"></polygon>
                </g>
            </g>
        </g>
    </g>
</svg>
